X:1
T:Title
%%score { 1 | 2 }
L:1/8
M:3/4
K:G
V:1 treble nm="Grand Piano"
V:2 bass 
V:1
 z2 z2[Q:1/4=100] DG | B2 G2 GB | d2 B2 GA | B3 G AB |[M:2/4] [FA]4 |[M:1/4] [FA][GB] | %6
[M:3/4] [Ac]2 [FA]2 [DGB][DAc] | [DBd]2 [DGB]2 [EGB][EGB] | [DFB]3 [DFB] [^CF_B][CFB] | %9
[M:2/4] [DFB]4 |[M:1/4] [DFc][DFc] |[M:3/4] [DGB]2 [B,G]2 [=Fd][Fd] | [Ec]2 [CE]2 [EA][EA] | %13
 G3 F EF |[M:2/4] [B,G]4 |] %15
V:2
 z2 z2 [G,B,][E,G,D] | [G,D]2 [G,B,D]2 [G,B,D][K:treble][G,DG] | [G,B,G]2 [G,G]2 [G,B,D][G,CD] | %3
 [G,DG]3 [B,D] [A,DF][G,DG] |[M:2/4][K:bass] [D,D]4 |[M:1/4] [D,D][D,D] | %6
[M:3/4] [D,D]2 [D,D]2 G,G, | G,2 G,2 E,E, | F,3 F, F,F, |[M:2/4] B,,4 |[M:1/4] A,,A,, | %11
[M:3/4] G,,2 G,,2 [B,,G,][B,,G,] | [C,G,]2 [C,G,]2 [C,C][C,C] | [D,B,D]3 [D,A,C] [D,A,C][D,A,C] | %14
[M:2/4] [G,,G,]4 |] %15

